**kern	**text	**kern	**text	**kern	**text	**kern	**text	**kern	**text
*staff5	*staff5	*staff4	*staff4	*staff3	*staff3	*staff2	*staff2	*staff1	*staff1
*I"Basso	*	*I"Tenore	*	*I"Alto	*	*I"Soprano II	*	*I"Soprano I	*
=1-	=1-	=1-	=1-	=1-	=1-	=1-	=1-	=1-	=1-
*clefF4	*	*clefGv2	*	*clefGv2	*	*clefG2	*	*clefG2	*
*k[]	*	*k[]	*	*k[]	*	*k[]	*	*k[]	*
*met(c|)	*	*met(c|)	*	*met(c|)	*	*met(c|)	*	*met(c|)	*
*M2/2	*	*M2/2	*	*M2/2	*	*M2/2	*	*M2/2	*
1r	.	1r	.	1r	.	1r	.	[1a	Ae-
=2	=2	=2	=2	=2	=2	=2	=2	=2	=2
1A	Ae-	1c	Ae-	[1e	Ae-	1r	.	2a/]	.
.	.	.	.	.	.	.	.	2e/	-sti-
=3	=3	=3	=3	=3	=3	=3	=3	=3	=3
1E	-sti-	2B\	-sti-	1e]	.	1r	.	2.g/	-ma-
.	.	[2B\	-ma-	.	.	.	.	.	.
.	.	.	.	.	.	.	.	8f/L	.
.	.	.	.	.	.	.	.	8e/J	.
=4	=4	=4	=4	=4	=4	=4	=4	=4	=4
1G	-ma-	2B\]	.	1d	-sti-	1r	.	2d/	-tus
.	.	4A/	.	.	.	.	.	[2e/	.
.	.	4G/	.	.	.	.	.	.	.
=5	=5	=5	=5	=5	=5	=5	=5	=5	=5
1F	-tus	2A/	.	2c\	-ma-	1r	.	2e/]	.
.	.	2A/	-tus	2A/	-tus	.	.	2d/	.
=6	=6	=6	=6	=6	=6	=6	=6	=6	=6
1E	sum	1B	sum	1G#	sum	1r	.	1e	sum
=7	=7	=7	=7	=7	=7	=7	=7	=7	=7
1A	cum	1c	cum	2r	.	1r	.	1r	.
.	.	.	.	[2e\	cum	.	.	.	.
=8	=8	=8	=8	=8	=8	=8	=8	=8	=8
1G	de-	1B	de-	2e\]	.	1r	.	1r	.
.	.	.	.	[2d\	de-	.	.	.	.
=9	=9	=9	=9	=9	=9	=9	=9	=9	=9
1F	-scen-	1A	-scen-	2d\]	.	1r	.	2r	.
.	.	.	.	[2c\	-scen-	.	.	[2a/	cum
=10	=10	=10	=10	=10	=10	=10	=10	=10	=10
!!linebreak:original
1E	-den-	2.B\	-den-	2c\]	.	1r	.	2a/]	.
.	.	.	.	[2B\	-den-	.	.	[2g/	de-
.	.	4c\	.	.	.	.	.	.	.
=11	=11	=11	=11	=11	=11	=11	=11	=11	=11
1D	-ti-	2d\	.	2B\]	.	1r	.	2g/]	.
.	.	2d\	-ti-	2A/	-ti-	.	.	2f/	-scen-
=12	=12	=12	=12	=12	=12	=12	=12	=12	=12
1C	-bus	1G	-bus	1c	-bus	1r	.	1e	-den-
=13	=13	=13	=13	=13	=13	=13	=13	=13	=13
1D	in	1F	in	1A	in	1r	.	1d	-ti-
=14	=14	=14	=14	=14	=14	=14	=14	=14	=14
4AA/	la-	2E/	la-	2.e\	la-	1r	.	2c/	-bus
4BB/	.	.	.	.	.	.	.	.	.
4C/	.	[2A/	.	.	.	.	.	2e/	in
4D\	.	.	.	8d\L	.	.	.	.	.
.	.	.	.	8c\J	.	.	.	.	.
=15	=15	=15	=15	=15	=15	=15	=15	=15	=15
[1E	.	2A/]	.	[1B	.	1r	.	[1e	la-
.	.	4G#/	.	.	.	.	.	.	.
.	.	4F#/	.	.	.	.	.	.	.
=16	=16	=16	=16	=16	=16	=16	=16	=16	=16
1E]	.	1G#i	.	1B]	.	1r	.	1e]	.
=17	=17	=17	=17	=17	=17	=17	=17	=17	=17
[1AA	-cum:	[1A	-cum:	[1c#	-cum:	1r	.	[1e	-cum:
=18	=18	=18	=18	=18	=18	=18	=18	=18	=18
1AA]	.	1A]	.	1c#]	.	1r	.	1e]	.
!!pagebreak:original
=19||	=19||	=19||	=19||	=19||	=19||	=19||	=19||	=19||	=19||
!!pagebreak:original
[1D	Fa-	[1A	Fa-	[1d	Fa-	1r	.	[1f#	Fa-
=20	=20	=20	=20	=20	=20	=20	=20	=20	=20
2D\]	.	2A/]	.	2d\]	.	1r	.	2f#/]	.
2D\	-ctus	2A/	-ctus	2d\	-ctus	.	.	2f#i/	-ctus
=21	=21	=21	=21	=21	=21	=21	=21	=21	=21
2GG/	sum	2B\	sum	2d\	sum	1r	.	1g	sum
[2C/	sic-	2c\	sic-	2e\	sic-	.	.	.	.
=22	=22	=22	=22	=22	=22	=22	=22	=22	=22
2C/]	.	2G/	.	2e\	.	1r	.	2g/	sic-
2BB/	-ut	2G/	-ut	2d\	-ut	.	.	2g/	-ut
=23	=23	=23	=23	=23	=23	=23	=23	=23	=23
1AA	ho-	2G/	ho-	1c	ho-	1r	.	1a	ho-
.	.	2F#/	.	.	.	.	.	.	.
=24	=24	=24	=24	=24	=24	=24	=24	=24	=24
1GG	-mo	1G	-mo	1B	-mo	1r	.	1d	-mo
=25	=25	=25	=25	=25	=25	=25	=25	=25	=25
2.C/	si-	2.G/	si-	2.c\	si-	1r	.	2.e/	si-
4C/	-ne	4G/	-ne	4c\	-ne	.	.	4e/	-ne
=26	=26	=26	=26	=26	=26	=26	=26	=26	=26
2GG/	ad-	2B\	ad-	2d\	ad-	1r	.	2g/	ad-
2AA/	-ju-	2A/	-ju-	2c\	-ju-	.	.	2e/	-ju-
=27	=27	=27	=27	=27	=27	=27	=27	=27	=27
[1E	-to-	2G#/	-to-	[1B	-to-	1r	.	[1e	-to-
.	.	[2A/	.	.	.	.	.	.	.
=28	=28	=28	=28	=28	=28	=28	=28	=28	=28
2E\]	.	2A/]	.	2B\]	.	1r	.	2e/]	.
2E\	-ri-	2G#/	-ri-	2B\	-ri-	.	.	2e/	-ri-
=29	=29	=29	=29	=29	=29	=29	=29	=29	=29
1AA	-o	1A	-o	1c#	-o	1r	.	1e	-o
=30	=30	=30	=30	=30	=30	=30	=30	=30	=30
2r	.	2r	.	2r	.	1r	.	2r	.
[2AA/	in-	[2A/	in-	2c#\	in-	.	.	[2e/	in-
=31	=31	=31	=31	=31	=31	=31	=31	=31	=31
2AA/]	.	2A/]	.	1d	-ter	1r	.	2e/]	.
2D\	-ter	2A/	-ter	.	.	.	.	2f/	-ter
=32	=32	=32	=32	=32	=32	=32	=32	=32	=32
!!linebreak:original
[1BB-	mor-	[1B-	mor-	[1d	mor-	1r	.	[1f	mor-
=33	=33	=33	=33	=33	=33	=33	=33	=33	=33
2BB-/]	.	2B-\]	.	2d\]	.	1r	.	2f/]	.
2FF/	-tu-	2A/	-tu-	2c\	-tu-	.	.	2f/	-tu-
=34	=34	=34	=34	=34	=34	=34	=34	=34	=34
1FF	-os	1A	-os	1c	-os	1r	.	1e-	-os
=35	=35	=35	=35	=35	=35	=35	=35	=35	=35
[1GG	li-	[1G	li-	[1B-	li-	1r	.	[1d	li-
=36	=36	=36	=36	=36	=36	=36	=36	=36	=36
1GG]	.	1G]	.	1B-]	.	1r	.	1d]	.
=37	=37	=37	=37	=37	=37	=37	=37	=37	=37
[1D	-ber.	[1F#	-ber.	[1A	-ber.	1r	.	[1d	-ber.
=38	=38	=38	=38	=38	=38	=38	=38	=38	=38
1D]	.	1F#]	.	1A]	.	1r	.	1d]	.
=39||	=39||	=39||	=39||	=39||	=39||	=39||	=39||	=39||	=39||
1r	.	1r	.	1d	Po-	1r	.	1r	.
=40	=40	=40	=40	=40	=40	=40	=40	=40	=40
1r	.	1r	.	2c\	-su-	1r	.	2r	.
.	.	.	.	[2d\	-e-	.	.	[2a/	Po-
=41	=41	=41	=41	=41	=41	=41	=41	=41	=41
1r	.	1r	.	2d\]	.	1r	.	2a/]	.
.	.	.	.	2B-\	-runt	.	.	2g/	-su-
=42	=42	=42	=42	=42	=42	=42	=42	=42	=42
1r	.	1r	.	2A/	me	2r	.	2a/	-e-
.	.	.	.	2d\	in	[2a/	Po-	2f/	-runt
=43	=43	=43	=43	=43	=43	=43	=43	=43	=43
1r	.	1r	.	1c	la-	2a/]	.	1e	me
.	.	.	.	.	.	2g/	-su-	.	.
=44	=44	=44	=44	=44	=44	=44	=44	=44	=44
!!linebreak:original
1r	.	1r	.	1A	-cu	2a/	-e-	2r	.
.	.	.	.	.	.	2f/	-runt	2a/	in
=45	=45	=45	=45	=45	=45	=45	=45	=45	=45
1r	.	1r	.	[1c	in-	[1e	me	1g	la-
=46	=46	=46	=46	=46	=46	=46	=46	=46	=46
1r	.	1r	.	2c\]	.	2e/]	.	2e/	-cu
.	.	.	.	2A/	-fer-	2a/	in	2f/	in-
=47	=47	=47	=47	=47	=47	=47	=47	=47	=47
1r	.	1r	.	2B\	-i-	1g	la-	2d/	-fer-
.	.	.	.	[2c\	-o-	.	.	2e/	-i-
=48	=48	=48	=48	=48	=48	=48	=48	=48	=48
1r	.	1r	.	2c\]	.	2e/	-cu	4g/	-o-
.	.	.	.	.	.	.	.	8f/L	.
.	.	.	.	.	.	.	.	8g/J	.
.	.	.	.	4B\	.	2f/	in-	[2a/	.
.	.	.	.	4A/	.	.	.	.	.
=49	=49	=49	=49	=49	=49	=49	=49	=49	=49
1r	.	1r	.	4B\	.	2d/	-fer-	2a/]	.
.	.	.	.	8A/L	.	.	.	.	.
.	.	.	.	8B/J	.	.	.	.	.
.	.	.	.	2c\	.	2e/	-i-	2g/	-ri,
=50	=50	=50	=50	=50	=50	=50	=50	=50	=50
1r	.	1r	.	1F	-ri,	1f	-o-	2r	.
.	.	.	.	.	.	.	.	[2a/	in
=51	=51	=51	=51	=51	=51	=51	=51	=51	=51
1r	.	1r	.	2A/	in	2e/	-ri,	2a/]	.
.	.	.	.	[2c\	te-	2e/	in	2g/	te-
=52	=52	=52	=52	=52	=52	=52	=52	=52	=52
1r	.	1r	.	2c\]	.	2g/	te-	2e/	-ne-
.	.	.	.	2A/	-ne-	2c/	-ne-	[2f/	-bro-
=53	=53	=53	=53	=53	=53	=53	=53	=53	=53
1r	.	1r	.	1B-	-bro-	2.d/	-bro-	4f/]	.
.	.	.	.	.	.	.	.	4e/	.
.	.	.	.	.	.	.	.	[2d/	.
.	.	.	.	.	.	4e/	.	.	.
=54	=54	=54	=54	=54	=54	=54	=54	=54	=54
!!pagebreak:original
1r	.	1r	.	1A	-sis,	2f/	.	2d/]	.
.	.	.	.	.	.	2e/	-sis,	2c#/	-sis,
=55	=55	=55	=55	=55	=55	=55	=55	=55	=55
1r	.	1r	.	2r	.	2r	.	2r	.
.	.	.	.	[2d\	et	[2f/	et	[2a/	et
=56	=56	=56	=56	=56	=56	=56	=56	=56	=56
1r	.	1r	.	2d\]	.	2f/]	.	2a/]	.
.	.	.	.	2c#\	in	2e/	in	2a/	in
=57	=57	=57	=57	=57	=57	=57	=57	=57	=57
1r	.	1r	.	[1d	um-	[1f#	um-	[1a	um-
=58	=58	=58	=58	=58	=58	=58	=58	=58	=58
1r	.	1r	.	2d\]	.	2f#/]	.	2a/]	.
.	.	.	.	2d\	-bra	2f#i/	-bra	2a/	-bra
=59	=59	=59	=59	=59	=59	=59	=59	=59	=59
1r	.	1r	.	[1G	mor-	[1g	mor-	[1b-	mor-
=60	=60	=60	=60	=60	=60	=60	=60	=60	=60
1r	.	1r	.	1G]	.	2g/]	.	1b-]	.
.	.	.	.	.	.	4f#/	.	.	.
.	.	.	.	.	.	4e/	.	.	.
=61	=61	=61	=61	=61	=61	=61	=61	=61	=61
1r	.	1r	.	[1d	-tis.	[1f#	-tis.	[1a	-tis.
=62	=62	=62	=62	=62	=62	=62	=62	=62	=62
1r	.	1r	.	1d]	.	1f#]	.	1a]	.
!!linebreak:original
=63||	=63||	=63||	=63||	=63||	=63||	=63||	=63||	=63||	=63||
!!linebreak:original
[1D	Fa-	[1A	Fa-	[1d	Fa-	[1f#	Fa-	[1f#	Fa-
=64	=64	=64	=64	=64	=64	=64	=64	=64	=64
2D\]	.	2A/]	.	2d\]	.	2f#/]	.	2f#/]	.
2D\	-ctus	2A/	-ctus	2d\	-ctus	2f#/	-ctus	2f#i/	-ctus
=65	=65	=65	=65	=65	=65	=65	=65	=65	=65
2GG/	sum	2B\	sum	2d\	sum	1g	sum	1g	sum
[2C/	sic-	2c\	sic-	2e\	sic-	.	.	.	.
=66	=66	=66	=66	=66	=66	=66	=66	=66	=66
2C/]	.	2G/	.	2e\	.	2g/	sic-	2g/	sic-
2BB/	-ut	2G/	-ut	2d\	-ut	2g/	-ut	2g/	-ut
=67	=67	=67	=67	=67	=67	=67	=67	=67	=67
1AA	ho-	2G/	ho-	1c	ho-	1a	ho-	1a	ho-
.	.	2F#/	.	.	.	.	.	.	.
=68	=68	=68	=68	=68	=68	=68	=68	=68	=68
1GG	-mo	1G	-mo	1B	-mo	1d	-mo	1d	-mo
=69	=69	=69	=69	=69	=69	=69	=69	=69	=69
2.C/	si-	2.G/	si-	2.c\	si-	2.e/	si-	2.e/	si-
4C/	-ne	4G/	-ne	4c\	-ne	4e/	-ne	4e/	-ne
=70	=70	=70	=70	=70	=70	=70	=70	=70	=70
2GG/	ad-	2B\	ad-	2d\	ad-	2g/	ad-	2g/	ad-
2AA/	-ju-	2A/	-ju-	2c\	-ju-	2e/	-ju-	2e/	-ju-
=71	=71	=71	=71	=71	=71	=71	=71	=71	=71
[1E	-to-	2G#/	-to-	[1B	-to-	[1e	-to-	[1e	-to-
.	.	[2A/	.	.	.	.	.	.	.
=72	=72	=72	=72	=72	=72	=72	=72	=72	=72
2E\]	.	2A/]	.	2B\]	.	2e/]	.	2e/]	.
2E\	-ri-	2G#/	-ri-	2B\	-ri-	2e/	-ri-	2e/	-ri-
=73	=73	=73	=73	=73	=73	=73	=73	=73	=73
1AA	-o	1A	-o	1c#	-o	1e	-o	1e	-o
=74	=74	=74	=74	=74	=74	=74	=74	=74	=74
!!linebreak:original
2r	.	2r	.	2r	.	2r	.	2r	.
[2AA/	in-	[2A/	in-	2c#\	in-	[2e/	in-	[2e/	in-
=75	=75	=75	=75	=75	=75	=75	=75	=75	=75
2AA/]	.	2A/]	.	1d	-ter	2e/]	.	2e/]	.
2D\	-ter	2A/	-ter	.	.	2f/	-ter	2f/	-ter
=76	=76	=76	=76	=76	=76	=76	=76	=76	=76
[1BB-	mor-	[1B-	mor-	[1d	mor-	[1f	mor-	[1f	mor-
=77	=77	=77	=77	=77	=77	=77	=77	=77	=77
2BB-/]	.	2B-\]	.	2d\]	.	2f/]	.	2f/]	.
2FF/	-tu-	2A/	-tu-	2c\	-tu-	2f/	-tu-	2f/	-tu-
=78	=78	=78	=78	=78	=78	=78	=78	=78	=78
1FF	-os	1A	-os	1c	-os	1e-	-os	1e-	-os
=79	=79	=79	=79	=79	=79	=79	=79	=79	=79
[1GG	li-	[1G	li-	[1B-	li-	[1d	li-	[1d	li-
=80	=80	=80	=80	=80	=80	=80	=80	=80	=80
1GG]	.	1G]	.	1B-]	.	1d]	.	1d]	.
=81	=81	=81	=81	=81	=81	=81	=81	=81	=81
[1D	-ber.	[1F#	-ber.	[1A	-ber.	[1d	-ber.	[1d	-ber.
=82	=82	=82	=82	=82	=82	=82	=82	=82	=82
1D]	.	1F#]	.	1A]	.	1d]	.	1d]	.
==	==	==	==	==	==	==	==	==	==
*-	*-	*-	*-	*-	*-	*-	*-	*-	*-
!!!OTL: Aestimatus sum 
!!!COM: Ingegneri, Marc' Antonio
!!!CDT: ca. 1535/36-1592-07-01
!!!TXO: Latin
!!!ODT: 
!!!ARL: Klasztor OO. Paulinów na Jasnej Górze
!!!voices:	5
!!title: @{OTL}, @{GTL}, ed. @{ENC}
!!!pag:
!!!GTL: Responsoria in Hebdomada majore
!!!EFL: 
!!!YEM: Creative Commons CC/BY/NC/SA 4.0
!!!ENC: Marcin Konik
!!!END: 2015-0m-dd
!!!EED: Marcin Konik
!!!EEV: 
!!!ONB: Encoded in vim by Marcin Konik
!!!CharacterEncoding: utf-8
!!!RDF**kern: l=long note in original notation
!!!RDF**kern: i=editorial accidental
!!muse2ps: z14jc180F
